packages/core/src/svgs/tokens/mono/THOL.svg

<svg width="24" height="24" viewBox="0 0 24 24" fill="none" xmlns="http://www.w3.org/2000/svg">
<path fill-rule="evenodd" clip-rule="evenodd" d="M8.06467 6.71934L11.627 9.71922C11.927 9.96917 12.3519 9.96917 12.6395 9.71295L16.0581 6.7131C16.4142 6.40061 16.4331 5.83814 16.0893 5.50689L12.6644 2.21954C12.523 2.08108 12.3337 2.00251 12.1358 2.00017C11.9378 1.99786 11.7466 2.07195 11.602 2.20705L8.03968 5.49439C7.68344 5.82564 7.69593 6.40686 8.07093 6.71934H8.06467ZM9.9334 6.34436L11.7332 7.86305C11.8833 7.98803 12.102 7.98803 12.2458 7.85679L13.9769 6.3381C14.1582 6.17562 14.1644 5.89438 13.9894 5.72563L12.2582 4.0632C12.186 3.9937 12.0897 3.95487 11.9896 3.95487C11.8892 3.95487 11.793 3.9937 11.7208 4.0632L9.92086 5.71939C9.87755 5.75954 9.84328 5.80839 9.82024 5.86272C9.7972 5.91706 9.78582 5.97567 9.78699 6.03467C9.78816 6.09368 9.80186 6.15178 9.82709 6.20515C9.85232 6.25853 9.88849 6.30596 9.9334 6.34436ZM5.67102 7.23182L11.5833 11.7379C11.8644 11.9566 12.2582 11.9504 12.5332 11.7254L18.1018 7.24432C18.408 6.99433 18.8392 7.01308 19.1266 7.28807L21.7515 9.83165C22.0828 10.1442 22.0828 10.6879 21.7515 11.0067L20.0516 12.6441L21.7266 14.3065C22.064 14.6439 22.0391 15.2127 21.6703 15.5189L15.1518 20.925C14.3202 21.6181 13.2721 21.9984 12.1895 21.9999H11.8583C10.7833 21.9999 9.7396 21.625 8.90214 20.9375L2.35867 15.5252C1.98369 15.2127 1.96493 14.6439 2.31492 14.3065L4.03985 12.6441L2.25867 10.9879C2.17968 10.9134 2.1162 10.8239 2.07185 10.7247C2.02751 10.6255 2.0032 10.5186 2.0003 10.41C1.99738 10.3015 2.01596 10.1933 2.05494 10.092C2.09392 9.9906 2.15254 9.89786 2.22742 9.81926L4.64608 7.31307C4.77674 7.17536 4.95373 7.09088 5.14297 7.07587C5.33221 7.06087 5.5203 7.11643 5.67102 7.23182ZM5.45854 9.03799L11.3771 13.7003C11.652 13.9128 12.0333 13.919 12.3145 13.7128L18.6705 9.03799L20.1267 10.5692L12.3145 16.1751C12.0333 16.3752 11.652 16.3689 11.3771 16.1565L4.03985 10.5692L5.45854 9.03799ZM5.45854 13.6377L11.3771 18.3001C11.652 18.5189 12.0333 18.5251 12.3145 18.3127L18.6705 13.6377L20.0453 15.1752L12.3145 20.7749C12.0333 20.9813 11.652 20.975 11.3771 20.7563L4.26484 15.1752L5.45854 13.6377Z" fill="white"/>
</svg>

<svg xmlns="http://www.w3.org/2000/svg" width="24" height="24" fill="none" viewBox="0 0 24 24">
    <path fill="#fff" fill-rule="evenodd" d="m8.065 6.72 3.562 3c.3.25.725.25 1.012-.007l3.42-3a.824.824 0 0 0 .03-1.206L12.664 2.22a.77.77 0 0 0-1.062-.013L8.04 5.494a.82.82 0 0 0 .03 1.225zm1.868-.376 1.8 1.519a.39.39 0 0 0 .513-.006l1.73-1.519a.42.42 0 0 0 .013-.612l-1.73-1.663a.387.387 0 0 0-.538 0L9.92 5.72a.418.418 0 0 0 .012.625m-4.262.888 5.912 4.506a.76.76 0 0 0 .95-.013l5.569-4.48a.766.766 0 0 1 1.025.043l2.625 2.544a.82.82 0 0 1 0 1.175l-1.7 1.637 1.675 1.662a.827.827 0 0 1-.057 1.213l-6.518 5.406A4.64 4.64 0 0 1 12.19 22h-.332a4.66 4.66 0 0 1-2.956-1.062L2.36 15.525a.82.82 0 0 1-.044-1.219l1.725-1.662-1.781-1.656a.824.824 0 0 1-.032-1.169l2.42-2.506a.77.77 0 0 1 1.024-.081M5.46 9.038l5.918 4.662a.78.78 0 0 0 .938.013l6.356-4.675 1.456 1.531-7.812 5.606a.79.79 0 0 1-.938-.018L4.04 10.569zm0 4.6 5.918 4.662a.76.76 0 0 0 .938.013l6.356-4.675 1.374 1.537-7.73 5.6a.77.77 0 0 1-.938-.019l-7.112-5.58z" clip-rule="evenodd"/>
</svg>
